Papirus/32x32/places/folder-linux.svg

<?xml version="1.0" encoding="UTF-8" standalone="no"?>
<svg xmlns="http://www.w3.org/2000/svg" height="32" width="32" version="1">
 <path style="opacity:0.2;fill:#000000;fill-opacity:1" d="m 28,26.75055 0,-13.49477 c 0,-0.69222 -0.56175,-1.32597 -1.25,-1.2495 l -10,0 -2.25,2.1e-4 -10.25,0 C 3,12.00649 3,13.20396 3,13.20396 L 3,26.7505 C 3,27.44272 3.5575,28 4.25,28 l 22.5,0 C 27.4425,28 28,27.44272 28,26.7505 Z"/>
 <path d="M 3,23.75027 3,7 C 3,6 3,5 4,5 l 9,0 c 1,0 1,1 1,2.0001 l 12.814,0 c 0,0 1.1859,0.006 1.1859,1.2558 l 0,15.49452 C 27.9999,24.44266 27.4424,25 26.7499,25 L 4.2504,25 c -0.6925,0 -1.25,-0.55729 -1.25,-1.24958 z" style="fill:#4877b1;fill-opacity:1"/>
 <path style="opacity:0.2;fill:#000000;fill-opacity:1" d="m 28,24.75055 0,-13.49477 c 0,-0.69222 -0.56175,-1.32597 -1.25,-1.2495 l -10,0 -2.25,2.1e-4 -10.25,0 C 3,10.00649 3,11.20396 3,11.20396 L 3,24.7505 C 3,25.44272 3.5575,26 4.25,26 l 22.5,0 C 27.4425,26 28,25.44272 28,24.7505 Z"/>
 <rect style="opacity:1;fill:#dcdcdc;fill-opacity:1;" width="21" height="10" x="5" y="9" ry="1.25" rx="1.167"/>
 <path d="m 28,25.75055 0,-13.49477 c 0,-0.69222 -0.56175,-1.32597 -1.25,-1.2495 l -10,0 -2.25,2.1e-4 -10.25,0 C 3,11.00649 3,12.20396 3,12.20396 L 3,25.7505 C 3,26.44272 3.5575,27 4.25,27 l 22.5,0 C 27.4425,27 28,26.44272 28,25.7505 Z" style="fill:#5294e2;fill-opacity:1"/>
 <path style="opacity:0.1;fill:#ffffff;fill-opacity:1" d="M 4,5 C 3,5 3,6 3,7 L 3,8 C 3,7 3,6 4,6 l 9,0 c 1,0 1,0.9999 1,2 L 26.81445,8 C 26.81445,8 28,8.006 28,9.25586 l 0,-1 C 28,7.00606 26.81445,7 26.81445,7 L 14,7 C 14,5.9999 14,5 13,5 L 4,5 Z"/>
 <path style="opacity:0.65" d="m 15.84344,21.19634 c -0.80023,0.37228 -1.5445,0.36832 -2.0443,0.33222 -0.59621,-0.04303 -1.0758,-0.20629 -1.2865,-0.34892 -0.12988,-0.08793 -0.30648,-0.05394 -0.39443,0.07601 -0.08793,0.1299 -0.0539,0.30648 0.076,0.39441 0.33884,0.22936 0.93816,0.39996 1.5641,0.44513 0.10611,0.0077 0.22264,0.01243 0.3481,0.01243 0.54474,0 1.2366,-0.05191 1.9767,-0.39619 0.1422,-0.0662 0.20386,-0.2351 0.13771,-0.37732 -0.06613,-0.14228 -0.2351,-0.20388 -0.37734,-0.13783 z m 3.1572,-0.42089 c 0.02714,-2.4678 0.28086,-7.1308 -4.4431,-6.754 -4.664,0.37547 -3.4273,5.3025 -3.4968,6.9527 -0.06164,0.87284 -0.35138,1.9398 -0.76074,3.025801 l 1.2607,0 c 0.12955,-0.460171 0.22484,-0.915231 0.26594,-1.349101 0.076,0.05301 0.1573,0.10424 0.24408,0.15336 0.14118,0.08318 0.26254,0.19379 0.39101,0.31088 0.30023,0.27361 0.64052,0.58372 1.3058,0.62257 0.04464,0.0026 0.08958,0.0039 0.13356,0.0039 0.67281,0 1.1329,-0.29445 1.5027,-0.53103 0.17715,-0.11344 0.33023,-0.21133 0.47424,-0.25836 0.40927,-0.12813 0.76691,-0.33488 1.0342,-0.59816 0.04177,-0.0411 0.08048,-0.08338 0.1168,-0.12644 0.14888,0.54566 0.35275,1.1597 0.579,1.772501 l 2.692,0 C 19.65375,23.00184 18.98713,22.02367 19.00083,20.77567 Z m -7.4886,-1.3424 c 0,-1.56e-4 0,-2.93e-4 -1.8e-5,-4.3e-4 -0.04634,-0.80527 0.33896,-1.4827 0.8606,-1.513 0.5216,-0.03033 0.98202,0.59792 1.0284,1.4032 0,1.37e-4 3.9e-5,2.93e-4 3.9e-5,4.1e-4 0.0024,0.04344 0.0036,0.08643 0.0036,0.12898 -0.16527,0.04156 -0.31437,0.10191 -0.44796,0.17213 -5.09e-4,-0.006 -8.99e-4,-0.01186 -0.0014,-0.01783 l 0,-2.93e-4 c -0.04463,-0.45709 -0.28879,-0.80234 -0.54543,-0.77107 -0.25664,0.03128 -0.42851,0.42724 -0.3839,0.88433 0,1.17e-4 3.8e-5,1.94e-4 3.8e-5,2.73e-4 0.01946,0.19932 0.07684,0.37728 0.15666,0.51216 -0.01986,0.01566 -0.07601,0.05676 -0.14068,0.10406 -0.04853,0.03547 -0.10761,0.07868 -0.17885,0.13116 -0.19416,-0.25484 -0.3272,-0.62091 -0.35097,-1.0341 z m 5.2847,1.9904 c -0.01857,0.42564 -0.57529,0.82609 -1.0897,0.98675 l -0.0029,9.39e-4 c -0.21385,0.06936 -0.40455,0.1914 -0.60646,0.3206 -0.33918,0.21699 -0.6899,0.44148 -1.1965,0.44148 -0.03324,0 -0.06733,-0.001 -0.10084,-0.0029 -0.46398,-0.02713 -0.68103,-0.22492 -0.95581,-0.4753 -0.14494,-0.13213 -0.29482,-0.26873 -0.48804,-0.38207 l -0.0041,-0.0024 c -0.41711,-0.23535 -0.67595,-0.52812 -0.69251,-0.7832 -0.0083,-0.12675 0.04823,-0.2365 0.16779,-0.32617 0.26012,-0.19502 0.43435,-0.32248 0.54964,-0.40681 0.12803,-0.09363 0.16668,-0.12184 0.19531,-0.14906 0.02047,-0.0194 0.04261,-0.0409 0.06644,-0.06408 0.23873,-0.23217 0.63828,-0.6207 1.2515,-0.6207 0.37504,0 0.79001,0.14451 1.2321,0.42873 0.20824,0.13551 0.38945,0.1981 0.6189,0.27732 0.15777,0.05447 0.3366,0.11623 0.57609,0.21879 l 0.0039,0.0016 c 0.22342,0.0918 0.48724,0.25935 0.47519,0.5364 z m -0.12323,-0.99974 c -0.04294,-0.0216 -0.08761,-0.04217 -0.1342,-0.06141 -0.21588,-0.09234 -0.38898,-0.15502 -0.53257,-0.20504 0.07929,-0.15519 0.12851,-0.34882 0.13302,-0.55898 l 0,-3.33e-4 c 0.011,-0.51148 -0.24697,-0.92671 -0.57611,-0.92749 -0.3292,-7.61e-4 -0.60497,0.41322 -0.61597,0.92466 l 0,2.73e-4 c -3.7e-4,0.01674 -4.1e-4,0.03336 -1.94e-4,0.0499 -0.20275,-0.09324 -0.40215,-0.16099 -0.59732,-0.20273 -8.98e-4,-0.01919 -0.002,-0.0384 -0.0024,-0.05781 l 0,-4.69e-4 c -0.01893,-0.93175 0.55275,-1.703 1.2769,-1.7227 0.7241,-0.01967 1.3264,0.71972 1.3454,1.6515 l 0,5.07e-4 c 0.0086,0.42136 -0.1041,0.80925 -0.2966,1.1101 z"/>
</svg>

<svg xmlns="http://www.w3.org/2000/svg" width="32" height="32" version="1">
 <rect style="opacity:0.2" width="25" height="16" x="3" y="12" rx="1.25" ry="1.25"/>
 <path style="fill:#4877b1" d="M 3,21.75 C 3,22.442 3.5575,23 4.25,23 H 26.75 C 27.442,23 28,22.442 28,21.75 V 8.25 C 28,7.5575 27.442,7 26.75,7 H 14 V 6.25 C 14,5.5575 13.443,5 12.75,5 H 4.25 C 3.5575,5 3,5.5575 3,6.25"/>
 <rect style="opacity:0.2" width="25" height="16" x="3" y="10" rx="1.25" ry="1.25"/>
 <rect style="fill:#dcdcdc" width="21" height="10" x="5" y="9" rx="1.25" ry="1.25"/>
 <rect style="fill:#5294e2" width="25" height="16" x="3" y="11" rx="1.25" ry="1.25"/>
 <path style="opacity:0.1;fill:#ffffff" d="M 4.25 5 C 3.5575 5 3 5.5575 3 6.25 L 3 7.25 C 3 6.5575 3.5575 6 4.25 6 L 12.75 6 C 13.443 6 14 6.5575 14 7.25 L 14 8 L 26.75 8 C 27.442 8 28 8.5575 28 9.25 L 28 8.25 C 28 7.5575 27.442 7 26.75 7 L 14 7 L 14 6.25 C 14 5.5575 13.443 5 12.75 5 L 4.25 5 z"/>
 <path style="opacity:0.65" d="M 15.843,21.196 C 15.043,21.569 14.299,21.565 13.799,21.529 13.203,21.486 12.723,21.322 12.513,21.18 12.383,21.092 12.206,21.126 12.118,21.256 12.03,21.386 12.064,21.562 12.194,21.65 12.533,21.879 13.132,22.05 13.758,22.095 13.864,22.103 13.981,22.108 14.106,22.108 14.651,22.108 15.343,22.056 16.083,21.711 16.225,21.645 16.287,21.476 16.221,21.334 16.155,21.192 15.986,21.13 15.843,21.196 Z M 19.001,20.775 C 19.028,18.308 19.282,13.645 14.558,14.021 9.8935,14.397 11.13,19.324 11.061,20.974 10.999,21.847 10.709,22.914 10.3,24 H 11.561 C 11.69,23.54 11.786,23.085 11.827,22.651 11.903,22.704 11.984,22.755 12.071,22.804 12.212,22.887 12.333,22.998 12.462,23.115 12.762,23.389 13.102,23.699 13.768,23.738 13.812,23.74 13.857,23.742 13.901,23.742 14.574,23.742 15.034,23.447 15.404,23.211 15.581,23.097 15.734,22.999 15.878,22.952 16.287,22.824 16.645,22.617 16.912,22.354 16.954,22.313 16.993,22.271 17.029,22.228 17.178,22.773 17.382,23.387 17.608,24 H 20.3 C 19.654,23.002 18.987,22.024 19.001,20.776 Z M 11.512,19.433 C 11.512,19.433 11.512,19.433 11.512,19.433 11.466,18.627 11.851,17.95 12.373,17.92 12.894,17.889 13.355,18.518 13.401,19.323 13.401,19.323 13.401,19.323 13.401,19.323 13.403,19.367 13.405,19.41 13.405,19.452 13.239,19.494 13.09,19.554 12.957,19.624 12.956,19.618 12.956,19.612 12.955,19.607 V 19.606 C 12.911,19.149 12.667,18.804 12.41,18.835 12.153,18.866 11.981,19.262 12.026,19.719 12.026,19.72 12.026,19.72 12.026,19.72 12.045,19.919 12.103,20.097 12.183,20.232 12.163,20.248 12.107,20.289 12.042,20.336 11.993,20.371 11.934,20.415 11.863,20.467 11.669,20.212 11.536,19.846 11.512,19.433 Z M 16.797,21.423 C 16.778,21.849 16.221,22.25 15.707,22.41 L 15.704,22.411 C 15.49,22.48 15.3,22.603 15.098,22.732 14.758,22.949 14.408,23.173 13.901,23.173 13.868,23.173 13.834,23.172 13.8,23.17 13.336,23.143 13.119,22.945 12.845,22.695 12.7,22.563 12.55,22.426 12.356,22.313 L 12.352,22.311 C 11.935,22.075 11.676,21.782 11.66,21.527 11.652,21.401 11.708,21.291 11.828,21.201 12.088,21.006 12.262,20.879 12.377,20.794 12.505,20.701 12.544,20.673 12.573,20.645 12.593,20.626 12.615,20.604 12.639,20.581 12.878,20.349 13.277,19.961 13.891,19.961 14.266,19.961 14.681,20.105 15.123,20.389 15.331,20.525 15.512,20.587 15.742,20.667 15.899,20.721 16.078,20.783 16.318,20.885 L 16.322,20.887 C 16.545,20.979 16.809,21.146 16.797,21.423 Z M 16.674,20.424 C 16.631,20.402 16.586,20.382 16.539,20.362 16.323,20.27 16.15,20.207 16.007,20.157 16.086,20.002 16.135,19.808 16.14,19.598 V 19.598 C 16.151,19.086 15.893,18.671 15.564,18.67 15.234,18.67 14.959,19.084 14.948,19.595 V 19.595 C 14.947,19.612 14.947,19.629 14.947,19.645 14.745,19.552 14.545,19.484 14.35,19.443 14.349,19.423 14.348,19.404 14.348,19.385 V 19.384 C 14.329,18.453 14.901,17.681 15.625,17.662 16.349,17.642 16.951,18.381 16.97,19.313 V 19.314 C 16.979,19.735 16.866,20.123 16.673,20.424 Z"/>
</svg>
